X: 3423
M: 2/4
L: 1/16
K: A
(eA) |\
c2(Bc) A2A2 | cAce a2(ef) | =g2(ae) g2(de) | =gdBA =GABG |\
c2(Bc) A2A2 | cAce a2(ef) | =gdBA =GABd | c2A2A2 :|
|: e2 |\
|: E2 |\


